cssgg/format-line-height.svg

<svg
  width="24"
  height="24"
  viewBox="0 0 24 24"
  fill="none"
  xmlns="http://www.w3.org/2000/svg"
>
  <path
    d="M5.09668 6.99707H7.17358L4.17358 3.99707L1.17358 6.99707H3.09668V17.0031H1.15881L4.15881 20.0031L7.15881 17.0031H5.09668V6.99707Z"
    fill="currentColor"
  />
  <path d="M22.8412 7H8.84119V5H22.8412V7Z" fill="currentColor" />
  <path d="M22.8412 11H8.84119V9H22.8412V11Z" fill="currentColor" />
  <path d="M8.84119 15H22.8412V13H8.84119V15Z" fill="currentColor" />
  <path d="M22.8412 19H8.84119V17H22.8412V19Z" fill="currentColor" />
</svg>

<svg viewBox="0 0 24 24" xmlns="http://www.w3.org/2000/svg"><g><path d="M5.09 6.99h2.07l-3-3 -3 3h1.92v10H1.14l3 3 3-3H5.07V6.98Z"/><path d="M22.84 7H8.83V5h14v2Z"/><path d="M22.84 11H8.83V9h14v2Z"/><path d="M8.84 15h14v-2H8.83v2Z"/><path d="M22.84 19H8.83v-2h14v2Z"/></g></svg>
